Newaita-dark/apps/16/gydl.svg

<svg height="16" viewBox="0 0 16 16" width="16" xmlns="http://www.w3.org/2000/svg" xmlns:xlink="http://www.w3.org/1999/xlink"><linearGradient id="a" gradientUnits="userSpaceOnUse" x1="7.93826" x2="7.93826" y1="12.3631645" y2="13.02468650002"><stop offset="0" stop-opacity=".27451"/><stop offset="1" stop-opacity="0"/></linearGradient><linearGradient id="b"><stop offset="0" stop-opacity=".313726"/><stop offset=".222222" stop-opacity=".27451"/><stop offset="1" stop-opacity="0"/></linearGradient><radialGradient id="c" cx="450.908936" cy="189.579361" gradientTransform="matrix(.00000009 -.0390662 -.0703192 -.00000005 26.561465 30.143863)" gradientUnits="userSpaceOnUse" r="21.166656" xlink:href="#b"/><radialGradient id="d" cx="450.908936" cy="189.579361" gradientTransform="matrix(-.00000009 .0390662 .0703192 .00000005 -10.60226 -5.417543)" gradientUnits="userSpaceOnUse" r="21.166656" xlink:href="#b"/><radialGradient id="e" cx="450.908936" cy="189.579361" gradientTransform="matrix(-.00000009 -.0390662 .0703192 -.00000005 -10.60226 30.143863)" gradientUnits="userSpaceOnUse" r="21.166656" xlink:href="#b"/><radialGradient id="f" cx="450.908936" cy="189.579361" gradientTransform="matrix(.00000009 .0390662 -.0703192 .00000005 26.561464 -5.417543)" gradientUnits="userSpaceOnUse" r="21.166656" xlink:href="#b"/><linearGradient id="g" gradientUnits="userSpaceOnUse" x1="7.938262" x2="7.938262" y1="12.69392400002" y2="2.77109599997"><stop offset="0" stop-color="#f44336"/><stop offset="1" stop-color="#ef5350"/></linearGradient><linearGradient id="h" gradientUnits="userSpaceOnUse" x1="7.9382592" x2="7.9382592" y1="8.22866020048" y2="1.44805597799"><stop offset="0" stop-color="#e0e0e0"/><stop offset="1" stop-color="#eee"/></linearGradient><path d="m2.5625 12.363281h10.832031v.660157h-10.832031zm0 0" fill="url(#a)"/><path d="m13.394531 12.363281h1.324219v-.660156h-1.324219zm0 0" fill="url(#c)"/><path d="m2.5625 12.363281h-1.320312v.660157h1.320312zm0 0" fill="url(#d)"/><path d="m2.5625 12.363281h-1.320312v-.660156h1.320312zm0 0" fill="url(#e)"/><path d="m13.394531 12.363281h1.324219v.660157h-1.324219zm0 0" fill="url(#f)"/><path d="m14.554688 4.425781c-.160157-.59375-.628907-1.0625-1.222657-1.21875-1.082031-.296875-5.414062-.296875-5.414062-.296875s-4.332031 0-5.414063.285156c-.582031.15625-1.058594.636719-1.21875 1.230469-.285156 1.082031-.285156 3.328125-.285156 3.328125s0 2.257813.285156 3.328125c.160156.59375.625 1.058594 1.21875 1.21875 1.09375.296875 5.414063.296875 5.414063.296875s4.332031 0 5.414062-.285156c.59375-.160156 1.0625-.625 1.222657-1.21875.285156-1.082031.285156-3.328125.285156-3.328125s.011718-2.257813-.285156-3.339844zm0 0" fill="url(#g)"/><path d="m7.917969 2.8125s-4.332031 0-5.414063.285156c-.582031.160156-1.058594.640625-1.21875 1.230469-.285156 1.085937-.285156 3.332031-.285156 3.332031v.113282c.003906-.464844.039062-2.277344.285156-3.21875.160156-.589844.636719-1.070313 1.21875-1.230469 1.082032-.285157 5.414063-.285157 5.414063-.285157s4.332031 0 5.414062.296876c.59375.160156 1.0625.628906 1.222657 1.21875.25.921874.28125 2.679687.285156 3.191406 0-.039063 0-.078125 0-.078125s.011718-2.253907-.285156-3.339844c-.160157-.589844-.628907-1.058594-1.222657-1.21875-1.082031-.296875-5.414062-.296875-5.414062-.296875zm0 0" fill="#fff" fill-opacity=".392157"/><path d="m7.917969 12.609375s-4.332031 0-5.414063-.28125c-.582031-.160156-1.058594-.640625-1.21875-1.234375-.285156-1.082031-.285156-3.328125-.285156-3.328125s0-.039063 0-.113281c.003906.464844.039062 2.277344.285156 3.214844.160156.59375.636719 1.074218 1.21875 1.234374 1.082032.285157 5.414063.285157 5.414063.285157s4.332031 0 5.414062-.296875c.59375-.160156 1.0625-.628906 1.222657-1.222656.25-.917969.28125-2.675782.285156-3.1875v.074218s.011718 2.257813-.285156 3.339844c-.160157.59375-.628907 1.0625-1.222657 1.222656-1.082031.292969-5.414062.292969-5.414062.292969zm0 0" fill-opacity=".235294"/><path d="m7.917969 2.851562s-1.082031 0-2.300781.035157c-1.21875.035156-2.566407.105469-3.125.253906h-.003907c-.601562.164063-1.09375.65625-1.257812 1.269531-.144531.550782-.214844 1.382813-.25 2.082032-.039063.699218-.039063 1.261718-.039063 1.261718s0 .566406.039063 1.265625c.035156.699219.105469 1.53125.25 2.078125.164062.613282.648437 1.09375 1.257812 1.257813.566407.152343 1.914063.226562 3.132813.261719 1.21875.039062 2.296875.039062 2.296875.039062s1.085937 0 2.304687-.035156c1.21875-.039063 2.566406-.105469 3.125-.253906.613282-.164063 1.097656-.648438 1.261719-1.257813.144531-.550781.214844-1.386719.25-2.082031.035156-.699219.035156-1.261719.035156-1.261719s.003907-.566406-.03125-1.265625c-.035156-.703125-.105469-1.539062-.253906-2.089844-.164063-.613281-.648437-1.09375-1.261719-1.261718-.558594-.152344-1.90625-.222657-3.125-.257813-1.21875-.039063-2.304687-.039063-2.304687-.039063zm0 .113282s1.082031 0 2.300781.039062c1.21875.035156 2.578125.113282 3.101562.257813.570313.152343 1.023438.605469 1.179688 1.179687.144531.53125.214844 1.363282.25 2.0625.035156.699219.03125 1.261719.03125 1.261719s0 .558594-.035156 1.253906c-.035156.695313-.109375 1.527344-.246094 2.058594-.15625.574219-.609375 1.023437-1.179688 1.179687-.523437.136719-1.882812.210938-3.101562.246094s-2.300781.035156-2.300781.035156-1.078125 0-2.292969-.035156-2.578125-.113281-3.105469-.257812c-.574219-.152344-1.023437-.605469-1.179687-1.179688-.140625-.527344-.210938-1.355468-.246094-2.054687-.035156-.695313-.035156-1.257813-.035156-1.257813s0-.5625.035156-1.253906c.035156-.695312.105469-1.527344.246094-2.058594.15625-.574218.617187-1.039062 1.179687-1.191406.523438-.140625 1.882813-.214844 3.101563-.25 1.214844-.035156 2.296875-.035156 2.296875-.035156zm0 0" fill="#212121"/><path d="m6.863281 1.453125c-.136719 0-.25.109375-.25.242187v8.683594h-1.652343l2.648437 3.308594c.289063.371094.371094.371094.660156 0l2.644531-3.308594h-1.652343v-8.683594c0-.132812-.109375-.242187-.25-.242187zm0 0" fill="url(#h)"/><path d="m6.863281 1.453125c-.136719 0-.25.109375-.25.242187v.242188c0-.132812.113281-.242188.25-.242188h2.148438c.140625 0 .25.109376.25.242188v-.242188c0-.132812-.109375-.242187-.25-.242187zm-1.902343 8.925781.195312.242188h1.457031v-.242188zm4.300781 0v.242188h1.460937l.191406-.242188zm0 0" fill="#fff"/><path d="m4.960938 10.378906 2.648437 3.308594c.289063.371094.371094.371094.660156 0l2.644531-3.308594h-.183593l-2.460938 3.078125c-.289062.371094-.371093.371094-.660156 0l-2.464844-3.078125zm0 0" fill-opacity=".235294"/><path d="m219.604029-168.50444c-4.374582 0-7.999236 3.499666-7.999236 7.74926v277.848467h-52.869951l84.741907 105.86489c9.249117 11.873866 11.873866 11.873866 21.122983 0l84.616919-105.86489h-52.869951v-277.848467c0-4.249594-3.499665-7.74926-7.999236-7.74926zm0 0" fill="none" stroke="#212121" stroke-linecap="round" stroke-width="3" transform="matrix(.031253 0 0 .031253 0 6.719392)"/><path d="m4.960938 10.710938 1.5 1.871093c.089843 0 .179687.003907.265624.003907l-1.5-1.875zm5.691406 0-1.503906 1.875c.085937 0 .175781-.003907.269531-.003907l1.496093-1.871093zm0 0" fill-opacity=".235294"/></svg>

<?xml version="1.0" encoding="UTF-8"?>
<svg xmlns="http://www.w3.org/2000/svg" xmlns:xlink="http://www.w3.org/1999/xlink" width="16px" height="16px" viewBox="0 0 16 16" version="1.1">
<defs>
<linearGradient id="linear0" gradientUnits="userSpaceOnUse" x1="254" y1="233.5" x2="254" y2="254.666672" gradientTransform="matrix(0.031253,0,0,0.031253,-0.00000190753,5.065589)">
<stop offset="0" style="stop-color:rgb(0%,0%,0%);stop-opacity:0.27451;"/>
<stop offset="1" style="stop-color:rgb(0%,0%,0%);stop-opacity:0;"/>
</linearGradient>
<radialGradient id="radial0" gradientUnits="userSpaceOnUse" cx="450.908936" cy="189.579361" fx="450.908936" fy="189.579361" r="21.166656" gradientTransform="matrix(0.0000000870852,-0.0390662,-0.0703192,-0.0000000507693,26.561465,30.143863)">
<stop offset="0" style="stop-color:rgb(0%,0%,0%);stop-opacity:0.313726;"/>
<stop offset="0.222222" style="stop-color:rgb(0%,0%,0%);stop-opacity:0.27451;"/>
<stop offset="1" style="stop-color:rgb(0%,0%,0%);stop-opacity:0;"/>
</radialGradient>
<radialGradient id="radial1" gradientUnits="userSpaceOnUse" cx="450.908936" cy="189.579361" fx="450.908936" fy="189.579361" r="21.166656" gradientTransform="matrix(-0.0000000870852,0.0390662,0.0703192,0.0000000507693,-10.60226,-5.417543)">
<stop offset="0" style="stop-color:rgb(0%,0%,0%);stop-opacity:0.313726;"/>
<stop offset="0.222222" style="stop-color:rgb(0%,0%,0%);stop-opacity:0.27451;"/>
<stop offset="1" style="stop-color:rgb(0%,0%,0%);stop-opacity:0;"/>
</radialGradient>
<radialGradient id="radial2" gradientUnits="userSpaceOnUse" cx="450.908936" cy="189.579361" fx="450.908936" fy="189.579361" r="21.166656" gradientTransform="matrix(-0.0000000870852,-0.0390662,0.0703192,-0.0000000507693,-10.60226,30.143863)">
<stop offset="0" style="stop-color:rgb(0%,0%,0%);stop-opacity:0.313726;"/>
<stop offset="0.222222" style="stop-color:rgb(0%,0%,0%);stop-opacity:0.27451;"/>
<stop offset="1" style="stop-color:rgb(0%,0%,0%);stop-opacity:0;"/>
</radialGradient>
<radialGradient id="radial3" gradientUnits="userSpaceOnUse" cx="450.908936" cy="189.579361" fx="450.908936" fy="189.579361" r="21.166656" gradientTransform="matrix(0.0000000870852,0.0390662,-0.0703192,0.0000000507693,26.561464,-5.417543)">
<stop offset="0" style="stop-color:rgb(0%,0%,0%);stop-opacity:0.313726;"/>
<stop offset="0.222222" style="stop-color:rgb(0%,0%,0%);stop-opacity:0.27451;"/>
<stop offset="1" style="stop-color:rgb(0%,0%,0%);stop-opacity:0;"/>
</radialGradient>
<linearGradient id="linear1" gradientUnits="userSpaceOnUse" x1="254" y1="191.166672" x2="254" y2="-126.333344" gradientTransform="matrix(0.031253,0,0,0.031253,0,6.719392)">
<stop offset="0" style="stop-color:rgb(95.686275%,26.274511%,21.176471%);stop-opacity:1;"/>
<stop offset="1" style="stop-color:rgb(93.725491%,32.549021%,31.37255%);stop-opacity:1;"/>
</linearGradient>
<linearGradient id="linear2" gradientUnits="userSpaceOnUse" x1="960" y1="1155.118164" x2="960" y2="335.117218" gradientTransform="matrix(0.00826902,0,0,0.00826902,0.000000197936,-1.323035)">
<stop offset="0" style="stop-color:rgb(87.843138%,87.843138%,87.843138%);stop-opacity:1;"/>
<stop offset="1" style="stop-color:rgb(93.333334%,93.333334%,93.333334%);stop-opacity:1;"/>
</linearGradient>
</defs>
<g id="surface1">
<path style=" stroke:none;fill-rule:nonzero;fill:url(#linear0);" d="M 2.5625 12.363281 L 13.394531 12.363281 L 13.394531 13.023438 L 2.5625 13.023438 Z M 2.5625 12.363281 "/>
<path style=" stroke:none;fill-rule:nonzero;fill:url(#radial0);" d="M 13.394531 12.363281 L 14.71875 12.363281 L 14.71875 11.703125 L 13.394531 11.703125 Z M 13.394531 12.363281 "/>
<path style=" stroke:none;fill-rule:nonzero;fill:url(#radial1);" d="M 2.5625 12.363281 L 1.242188 12.363281 L 1.242188 13.023438 L 2.5625 13.023438 Z M 2.5625 12.363281 "/>
<path style=" stroke:none;fill-rule:nonzero;fill:url(#radial2);" d="M 2.5625 12.363281 L 1.242188 12.363281 L 1.242188 11.703125 L 2.5625 11.703125 Z M 2.5625 12.363281 "/>
<path style=" stroke:none;fill-rule:nonzero;fill:url(#radial3);" d="M 13.394531 12.363281 L 14.71875 12.363281 L 14.71875 13.023438 L 13.394531 13.023438 Z M 13.394531 12.363281 "/>
<path style=" stroke:none;fill-rule:nonzero;fill:url(#linear1);" d="M 14.554688 4.425781 C 14.394531 3.832031 13.925781 3.363281 13.332031 3.207031 C 12.25 2.910156 7.917969 2.910156 7.917969 2.910156 C 7.917969 2.910156 3.585938 2.910156 2.503906 3.195312 C 1.921875 3.351562 1.445312 3.832031 1.285156 4.425781 C 1 5.507812 1 7.753906 1 7.753906 C 1 7.753906 1 10.011719 1.285156 11.082031 C 1.445312 11.675781 1.910156 12.140625 2.503906 12.300781 C 3.597656 12.597656 7.917969 12.597656 7.917969 12.597656 C 7.917969 12.597656 12.25 12.597656 13.332031 12.3125 C 13.925781 12.152344 14.394531 11.6875 14.554688 11.09375 C 14.839844 10.011719 14.839844 7.765625 14.839844 7.765625 C 14.839844 7.765625 14.851562 5.507812 14.554688 4.425781 Z M 14.554688 4.425781 "/>
<path style=" stroke:none;fill-rule:nonzero;fill:rgb(100%,100%,100%);fill-opacity:0.392157;" d="M 7.917969 2.8125 C 7.917969 2.8125 3.585938 2.8125 2.503906 3.097656 C 1.921875 3.257812 1.445312 3.738281 1.285156 4.328125 C 1 5.414062 1 7.660156 1 7.660156 C 1 7.660156 1 7.699219 1 7.773438 C 1.003906 7.308594 1.039062 5.496094 1.285156 4.554688 C 1.445312 3.964844 1.921875 3.484375 2.503906 3.324219 C 3.585938 3.039062 7.917969 3.039062 7.917969 3.039062 C 7.917969 3.039062 12.25 3.039062 13.332031 3.335938 C 13.925781 3.496094 14.394531 3.964844 14.554688 4.554688 C 14.804688 5.476562 14.835938 7.234375 14.839844 7.746094 C 14.839844 7.707031 14.839844 7.667969 14.839844 7.667969 C 14.839844 7.667969 14.851562 5.414062 14.554688 4.328125 C 14.394531 3.738281 13.925781 3.269531 13.332031 3.109375 C 12.25 2.8125 7.917969 2.8125 7.917969 2.8125 Z M 7.917969 2.8125 "/>
<path style=" stroke:none;fill-rule:nonzero;fill:rgb(0%,0%,0%);fill-opacity:0.235294;" d="M 7.917969 12.609375 C 7.917969 12.609375 3.585938 12.609375 2.503906 12.328125 C 1.921875 12.167969 1.445312 11.6875 1.285156 11.09375 C 1 10.011719 1 7.765625 1 7.765625 C 1 7.765625 1 7.726562 1 7.652344 C 1.003906 8.117188 1.039062 9.929688 1.285156 10.867188 C 1.445312 11.460938 1.921875 11.941406 2.503906 12.101562 C 3.585938 12.386719 7.917969 12.386719 7.917969 12.386719 C 7.917969 12.386719 12.25 12.386719 13.332031 12.089844 C 13.925781 11.929688 14.394531 11.460938 14.554688 10.867188 C 14.804688 9.949219 14.835938 8.191406 14.839844 7.679688 C 14.839844 7.71875 14.839844 7.753906 14.839844 7.753906 C 14.839844 7.753906 14.851562 10.011719 14.554688 11.09375 C 14.394531 11.6875 13.925781 12.15625 13.332031 12.316406 C 12.25 12.609375 7.917969 12.609375 7.917969 12.609375 Z M 7.917969 12.609375 "/>
<path style=" stroke:none;fill-rule:nonzero;fill:rgb(12.941177%,12.941177%,12.941177%);fill-opacity:1;" d="M 7.917969 2.851562 C 7.917969 2.851562 6.835938 2.851562 5.617188 2.886719 C 4.398438 2.921875 3.050781 2.992188 2.492188 3.140625 L 2.488281 3.140625 C 1.886719 3.304688 1.394531 3.796875 1.230469 4.410156 C 1.085938 4.960938 1.015625 5.792969 0.980469 6.492188 C 0.941406 7.191406 0.941406 7.753906 0.941406 7.753906 C 0.941406 7.753906 0.941406 8.320312 0.980469 9.019531 C 1.015625 9.71875 1.085938 10.550781 1.230469 11.097656 C 1.394531 11.710938 1.878906 12.191406 2.488281 12.355469 C 3.054688 12.507812 4.402344 12.582031 5.621094 12.617188 C 6.839844 12.65625 7.917969 12.65625 7.917969 12.65625 C 7.917969 12.65625 9.003906 12.65625 10.222656 12.621094 C 11.441406 12.582031 12.789062 12.515625 13.347656 12.367188 C 13.960938 12.203125 14.445312 11.71875 14.609375 11.109375 C 14.753906 10.558594 14.824219 9.722656 14.859375 9.027344 C 14.894531 8.328125 14.894531 7.765625 14.894531 7.765625 C 14.894531 7.765625 14.898438 7.199219 14.863281 6.5 C 14.828125 5.796875 14.757812 4.960938 14.609375 4.410156 C 14.445312 3.796875 13.960938 3.316406 13.347656 3.148438 C 12.789062 2.996094 11.441406 2.925781 10.222656 2.890625 C 9.003906 2.851562 7.917969 2.851562 7.917969 2.851562 Z M 7.917969 2.964844 C 7.917969 2.964844 9 2.964844 10.21875 3.003906 C 11.4375 3.039062 12.796875 3.117188 13.320312 3.261719 C 13.890625 3.414062 14.34375 3.867188 14.5 4.441406 C 14.644531 4.972656 14.714844 5.804688 14.75 6.503906 C 14.785156 7.203125 14.78125 7.765625 14.78125 7.765625 C 14.78125 7.765625 14.78125 8.324219 14.746094 9.019531 C 14.710938 9.714844 14.636719 10.546875 14.5 11.078125 C 14.34375 11.652344 13.890625 12.101562 13.320312 12.257812 C 12.796875 12.394531 11.4375 12.46875 10.21875 12.503906 C 9 12.539062 7.917969 12.539062 7.917969 12.539062 C 7.917969 12.539062 6.839844 12.539062 5.625 12.503906 C 4.410156 12.46875 3.046875 12.390625 2.519531 12.246094 C 1.945312 12.09375 1.496094 11.640625 1.339844 11.066406 C 1.199219 10.539062 1.128906 9.710938 1.09375 9.011719 C 1.058594 8.316406 1.058594 7.753906 1.058594 7.753906 C 1.058594 7.753906 1.058594 7.191406 1.09375 6.5 C 1.128906 5.804688 1.199219 4.972656 1.339844 4.441406 C 1.496094 3.867188 1.957031 3.402344 2.519531 3.25 C 3.042969 3.109375 4.402344 3.035156 5.621094 3 C 6.835938 2.964844 7.917969 2.964844 7.917969 2.964844 Z M 7.917969 2.964844 "/>
<path style=" stroke:none;fill-rule:nonzero;fill:url(#linear2);" d="M 6.863281 1.453125 C 6.726562 1.453125 6.613281 1.5625 6.613281 1.695312 L 6.613281 10.378906 L 4.960938 10.378906 L 7.609375 13.6875 C 7.898438 14.058594 7.980469 14.058594 8.269531 13.6875 L 10.914062 10.378906 L 9.261719 10.378906 L 9.261719 1.695312 C 9.261719 1.5625 9.152344 1.453125 9.011719 1.453125 Z M 6.863281 1.453125 "/>
<path style=" stroke:none;fill-rule:nonzero;fill:rgb(100%,100%,100%);fill-opacity:1;" d="M 6.863281 1.453125 C 6.726562 1.453125 6.613281 1.5625 6.613281 1.695312 L 6.613281 1.9375 C 6.613281 1.804688 6.726562 1.695312 6.863281 1.695312 L 9.011719 1.695312 C 9.152344 1.695312 9.261719 1.804688 9.261719 1.9375 L 9.261719 1.695312 C 9.261719 1.5625 9.152344 1.453125 9.011719 1.453125 Z M 4.960938 10.378906 L 5.15625 10.621094 L 6.613281 10.621094 L 6.613281 10.378906 Z M 9.261719 10.378906 L 9.261719 10.621094 L 10.722656 10.621094 L 10.914062 10.378906 Z M 9.261719 10.378906 "/>
<path style=" stroke:none;fill-rule:nonzero;fill:rgb(0%,0%,0%);fill-opacity:0.235294;" d="M 4.960938 10.378906 L 7.609375 13.6875 C 7.898438 14.058594 7.980469 14.058594 8.269531 13.6875 L 10.914062 10.378906 L 10.730469 10.378906 L 8.269531 13.457031 C 7.980469 13.828125 7.898438 13.828125 7.609375 13.457031 L 5.144531 10.378906 Z M 4.960938 10.378906 "/>
<path style="fill:none;stroke-width:3;stroke-linecap:round;stroke-linejoin:miter;stroke:rgb(12.941177%,12.941177%,12.941177%);stroke-opacity:1;stroke-miterlimit:4;" d="M 219.604029 -168.50444 C 215.229447 -168.50444 211.604793 -165.004774 211.604793 -160.75518 L 211.604793 117.093287 L 158.734842 117.093287 L 243.476749 222.958177 C 252.725866 234.832043 255.350615 234.832043 264.599732 222.958177 L 349.216651 117.093287 L 296.3467 117.093287 L 296.3467 -160.75518 C 296.3467 -165.004774 292.847035 -168.50444 288.347464 -168.50444 Z M 219.604029 -168.50444 " transform="matrix(0.031253,0,0,0.031253,0,6.719392)"/>
<path style=" stroke:none;fill-rule:nonzero;fill:rgb(0%,0%,0%);fill-opacity:0.235294;" d="M 4.960938 10.710938 L 6.460938 12.582031 C 6.550781 12.582031 6.640625 12.585938 6.726562 12.585938 L 5.226562 10.710938 Z M 10.652344 10.710938 L 9.148438 12.585938 C 9.234375 12.585938 9.324219 12.582031 9.417969 12.582031 L 10.914062 10.710938 Z M 10.652344 10.710938 "/>
</g>
</svg>
